X: 27
T: Connaughtman's Rambles, The
Z: Sean Perry
S: https://thesession.org/tunes/19#setting50914
R: jig
M: 6/8
L: 1/8
K: Dmaj
|:FAA dAA|BAB dAG|FAA dfe|dBB BAG|
FAA dAA|BAB def|gfe dfe|1 dBB BAG:|2 dBB B2g||
|:fbb faa|fef deg|fbb faa|fed e2g|
fbb faa|fef def|gfe dfe|1 dBB B2g:|2 dBB BAG||

